wp-content/themes/blackfoot/assets/img/icon-question-white.svg

<svg xmlns="http://www.w3.org/2000/svg" width="34" height="34"><title>Oval 9</title><desc>Created with Sketch.</desc><g fill="none"><g fill="#fff"><g><path d="M17 34c9.4 0 17-7.6 17-17S26.4 0 17 0 0 7.6 0 17s7.6 17 17 17zm6.55-21.5c0-3.2-2.76-5.7-6.78-5.7-1.38 0-2.46.24-3.27.57l-.18 3.87c.78-.3 2.13-.57 3.1-.57 1.82 0 2.96.57 2.96 1.56 0 .78-.75 1-2.25 1.4-1.86.52-3 1.42-3 2.98 0 1.3.93 2.74 2.5 3.37.26 0 2.93-.45 2.93-.45-.33-.33-1.65-1.35-1.65-1.7.22-.52.97-.76 2.17-1.12 1.92-.63 3.48-1.8 3.48-4.2zm-3.33 11.4c0-1.62-1.14-2.52-2.85-2.52-1.68 0-2.82.9-2.82 2.52 0 1.65 1.14 2.55 2.82 2.55 1.7 0 2.85-.9 2.85-2.55z"/></g></g></g></svg>

<?xml version="1.0" encoding="UTF-8" standalone="no"?>
<svg width="34px" height="34px" viewBox="0 0 34 34" version="1.1" xmlns="http://www.w3.org/2000/svg" xmlns:xlink="http://www.w3.org/1999/xlink" xmlns:sketch="http://www.bohemiancoding.com/sketch/ns">
    <!-- Generator: Sketch 3.4 (15575) - http://www.bohemiancoding.com/sketch -->
    <title>Shape</title>
    <desc>Created with Sketch.</desc>
    <defs></defs>
    <g id="Page-1" stroke="none" stroke-width="1" fill="none" fill-rule="evenodd" sketch:type="MSPage">
        <g id="Unknown" sketch:type="MSLayerGroup" fill="#FFFFFF">
            <g id="Group" sketch:type="MSShapeGroup">
                <g id="Shape">
                    <path d="M17,34 C26.4,34 34,26.4 34,17 C34,7.6 26.4,0 17,0 C7.6,0 0,7.6 0,17 C0,26.4 7.6,34 17,34 L17,34 Z M23.55,12.5 C23.55,9.3 20.79,6.8 16.77,6.8 C15.39,6.8 14.31,7.04 13.5,7.37 L13.32,11.24 C14.1,10.94 15.45,10.67 16.42,10.67 C18.24,10.67 19.38,11.24 19.38,12.23 C19.38,13.01 18.63,13.23 17.13,13.63 C15.27,14.15 14.13,15.05 14.13,16.61 C14.13,17.91 15.06,19.35 16.63,19.98 C16.89,19.98 19.56,19.53 19.56,19.53 C19.23,19.2 17.91,18.18 17.91,17.83 C18.13,17.31 18.88,17.07 20.08,16.71 C22,16.08 23.56,14.91 23.56,12.51 L23.55,12.5 Z M20.22,23.9 C20.22,22.28 19.08,21.38 17.37,21.38 C15.69,21.38 14.55,22.28 14.55,23.9 C14.55,25.55 15.69,26.45 17.37,26.45 C19.07,26.45 20.22,25.55 20.22,23.9 L20.22,23.9 Z"></path>
                </g>
            </g>
        </g>
    </g>
</svg>
